X: 914
T: Alisa's Screen Debut
R: jig
M: 6/8
K: Bdorian
BFA Bde|fdf ecA|BFA Bde|fdf e2c|
BFA Bde|fdf eaf|eed ccB|AAG FGA:|
|:Baf d2c|BBc dec|Baf d2d|ccd efd|
Baf b2g|a2B g2e|f2B edc|BAG FGA:|

